X: 26438
T: Merry Thatcher, The
R: reel
M: 4/4
K: Edorian
|:EBBA FADA|FADA ADFA|EBBA FADA|B2Ad BEED|
EBBA FADA|ADFA d3e|fgfe dgfe|1 dBAF BEED:|2 dBAF BEEd||
|:eB~B2 efge|fdde fgaf|eBBg fgaf|defa geed|
eB~B2 fgge|dDFA d3e|fgfe dgfe|1 dBAF BEEd:|2 dBAF B2AF||

